svgs/1F61B.svg

<svg xmlns="http://www.w3.org/2000/svg" xmlns:xlink="http://www.w3.org/1999/xlink" preserveAspectRatio="none" viewBox="0 0 72 72"><defs><path id="a" fill="#FCC21B" d="M127.2 93.45q0-27.05-8.45-47.2Q103.3 9.5 64 9.5q-39.35 0-54.8 36.75Q.75 66.4.75 93.45q0 10.4 18.5 17.75 18.55 7.35 44.75 7.35 26.15 0 44.7-7.35 18.5-7.35 18.5-17.75z"/><path id="b" fill="#2F2F2F" d="M55.15 46.15q.95-3.3-.7-4.4-1.1-.75-2.85-.6-.2.05-3 .6-5.7 1.15-12.4 1.15-6.75 0-12.4-1.15-2.8-.55-3-.6-1.75-.15-2.9.6-1.6 1.1-.65 4.4.95 3.3 3.55 6.05 2.4 2.45 5.4 4 4.55 2.4 10 2.4t10-2.4q3-1.55 5.35-4 2.65-2.75 3.6-6.05z"/><path id="c" fill="#2F2F2F" d="M47.8 48.6q-2.45-2.85-5.8-2.8-3.35.05-5.75 2.9-2.35 2.9-2.3 6.9.05 4 2.45 6.85 2.45 2.8 5.8 2.75 3.35 0 5.7-2.85t2.35-6.9q-.05-4.05-2.45-6.85z"/><path id="d" fill="#2F2F2F" d="M92 48.65q-2.35-2.85-5.75-2.85-3.35.05-5.75 2.9-2.35 2.85-2.35 6.85 0 4 2.4 6.85 2.35 2.8 5.75 2.8 3.35 0 5.75-2.85 2.35-2.85 2.35-6.85 0-4-2.4-6.85z"/><path id="e" fill="#D7598B" d="M36 47.65q-5.3 0-10.45-.8.6.7 2.3 9.75.2 1.05.4 1.95.8 2.3 1.95 3.65 1 1.2 2.3 1.6 1.45.5 3.5.5t3.5-.5q1.3-.4 2.3-1.6 1.15-1.35 1.95-3.65.2-.9.4-1.95 1.7-9.05 2.3-9.75-5.15.8-10.45.8v10.5-10.5z"/><path id="f" fill="none" stroke="#2F2F2F" stroke-linecap="round" stroke-linejoin="round" stroke-width="2" d="M36 47.65v10.5"/></defs><use transform="scale(.5625)" xlink:href="#a"/><use xlink:href="#b"/><use transform="matrix(.56247 0 0 .56247 0 -.9)" xlink:href="#c"/><use transform="matrix(.56247 0 0 .56247 0 -.9)" xlink:href="#d"/><g><g><use xlink:href="#e"/><use xlink:href="#f"/></g></g></svg>

<svg xmlns="http://www.w3.org/2000/svg" version="1.1" xmlns:xlink="http://www.w3.org/1999/xlink" preserveAspectRatio="none" x="0px" y="0px" width="72px" height="72px" viewBox="0 0 72 72">
<defs>
<g id="Layer1_0_FILL">
<path fill="#FCC21B" stroke="none" d="
M 127.2 93.45
Q 127.2 66.4 118.75 46.25 103.3 9.5 64 9.5 24.65 9.5 9.2 46.25 0.75 66.4 0.75 93.45 0.75 103.85 19.25 111.2 37.8 118.55 64 118.55 90.15 118.55 108.7 111.2 127.2 103.85 127.2 93.45 Z"/>
</g>

<g id="Layer1_1_FILL">
<path fill="#2F2F2F" stroke="none" d="
M 55.15 46.15
Q 56.1 42.85 54.45 41.75 53.35 41 51.6 41.15 51.4 41.2 48.6 41.75 42.9 42.9 36.2 42.9 29.45 42.9 23.8 41.75 21 41.2 20.8 41.15 19.05 41 17.9 41.75 16.3 42.85 17.25 46.15 18.2 49.45 20.8 52.2 23.2 54.65 26.2 56.2 30.75 58.6 36.2 58.6 41.65 58.6 46.2 56.2 49.2 54.65 51.55 52.2 54.2 49.45 55.15 46.15 Z"/>
</g>

<g id="Layer1_2_MEMBER_0_FILL">
<path fill="#2F2F2F" stroke="none" d="
M 47.8 48.6
Q 45.35 45.75 42 45.8 38.65 45.85 36.25 48.7 33.9 51.6 33.95 55.6 34 59.6 36.4 62.45 38.85 65.25 42.2 65.2 45.55 65.2 47.9 62.35 50.25 59.5 50.25 55.45 50.2 51.4 47.8 48.6 Z"/>
</g>

<g id="Layer1_2_MEMBER_1_FILL">
<path fill="#2F2F2F" stroke="none" d="
M 92 48.65
Q 89.65 45.8 86.25 45.8 82.9 45.85 80.5 48.7 78.15 51.55 78.15 55.55 78.15 59.55 80.55 62.4 82.9 65.2 86.3 65.2 89.65 65.2 92.05 62.35 94.4 59.5 94.4 55.5 94.4 51.5 92 48.65 Z"/>
</g>

<g id="Layer0_0_FILL">
<path fill="#D7598B" stroke="none" d="
M 36 47.65
Q 30.7 47.65 25.55 46.85 26.15 47.55 27.85 56.6 28.05 57.65 28.25 58.55 29.05 60.85 30.2 62.2 31.2 63.4 32.5 63.8 33.95 64.3 36 64.3 38.05 64.3 39.5 63.8 40.8 63.4 41.8 62.2 42.95 60.85 43.75 58.55 43.95 57.65 44.15 56.6 45.85 47.55 46.45 46.85 41.3 47.65 36 47.65
L 36 58.15 36 47.65 Z"/>
</g>

<path id="Layer0_0_1_STROKES" stroke="#2F2F2F" stroke-width="2" stroke-linejoin="round" stroke-linecap="round" fill="none" d="
M 36 47.65
L 36 58.15"/>
</defs>

<g id="Layer_1">
<g transform="matrix( 0.5625, 0, 0, 0.5625, 0,0) ">
<use xlink:href="#Layer1_0_FILL"/>
</g>

<g transform="matrix( 1, 0, 0, 1, 0,0) ">
<use xlink:href="#Layer1_1_FILL"/>
</g>

<g transform="matrix( 0.562469482421875, 0, 0, 0.562469482421875, 0,-0.9) ">
<use xlink:href="#Layer1_2_MEMBER_0_FILL"/>
</g>

<g transform="matrix( 0.562469482421875, 0, 0, 0.562469482421875, 0,-0.9) ">
<use xlink:href="#Layer1_2_MEMBER_1_FILL"/>
</g>
</g>

<g id="Camada_3">
<g transform="matrix( 1, 0, 0, 1, 0,0) ">
<use xlink:href="#Layer0_0_FILL"/>

<use xlink:href="#Layer0_0_1_STROKES"/>
</g>
</g>
</svg>
